X: 550
T:Midsummer's Night, The
M:4/4
L:1/8
C:Vincent Broderick
R:Reel
Z:Andrew Pickering
N:Posted to the woodenflute mailing list, July 2002
K:D
e2 dB A2 AG|EGDG EGDB|eB dB A2 Bd|eaag edBd|
e2 dB A2 AG|EGDG EGDE|G2 GA BGBd|gedB BAAB:|
G2GA BGBd|g2 ga baga|bage dGBd|e2 ge edBA|
G2GA BGBd|g2 ga baga|bage dGBd|egdB BA A2:|
<end>
<start>
